src/components/sections/images/img_icon_2.svg

<svg width="24" height="24" viewBox="0 0 24 24" fill="none" xmlns="http://www.w3.org/2000/svg">
<path d="M7.49523 6.29199C7.81154 6.12887 8.1877 6.12887 8.50401 6.29199C8.81595 6.45294 8.95153 6.72226 8.98155 6.78223C8.9823 6.78372 8.98407 6.78629 8.98448 6.78711C9.02132 6.85995 9.05476 6.94403 9.07237 6.98828C9.07407 6.99253 9.07586 6.99652 9.07726 7L10.7687 11.2305L15.0001 12.9229C15.0035 12.9242 15.0077 12.9261 15.0118 12.9277C15.0562 12.9454 15.1394 12.9789 15.212 13.0156C15.212 13.0156 15.215 13.0166 15.2169 13.0176C15.2759 13.0471 15.5467 13.1832 15.7081 13.4961C15.8711 13.8123 15.8711 14.1877 15.7081 14.5039C15.5467 14.8168 15.2759 14.9529 15.2169 14.9824C15.215 14.9834 15.212 14.9844 15.212 14.9844C15.1394 15.0211 15.0562 15.0546 15.0118 15.0723C15.0077 15.0739 15.0035 15.0758 15.0001 15.0771L10.7687 16.7695L9.07726 21C9.07586 21.0035 9.07407 21.0075 9.07237 21.0117C9.05476 21.056 9.02131 21.1401 8.98448 21.2129C8.98407 21.2137 8.9823 21.2163 8.98155 21.2178C8.95152 21.2778 8.81594 21.5471 8.50401 21.708C8.1877 21.8711 7.81154 21.8711 7.49523 21.708C7.18325 21.5469 7.04757 21.2775 7.01769 21.2178C7.0169 21.2162 7.0151 21.2136 7.01476 21.2129C6.97799 21.1402 6.94548 21.056 6.92784 21.0117C6.92616 21.0075 6.92434 21.0035 6.92296 21L5.23058 16.7695L1.00011 15.0771C0.996668 15.0758 0.992588 15.0739 0.988389 15.0723C0.944139 15.0547 0.860066 15.0212 0.787218 14.9844C0.786531 14.984 0.783908 14.9832 0.782335 14.9824C0.723328 14.9529 0.452494 14.8168 0.291124 14.5039C0.128218 14.1878 0.128221 13.8122 0.291124 13.4961C0.452494 13.1832 0.723329 13.0471 0.782335 13.0176C0.783904 13.0168 0.786524 13.016 0.787218 13.0156C0.860067 12.9788 0.94414 12.9453 0.988389 12.9277C0.992589 12.9261 0.996667 12.9242 1.00011 12.9229L5.23058 11.2305L6.92296 7C6.92434 6.99654 6.92616 6.99251 6.92784 6.98828C6.94548 6.94397 6.97798 6.85983 7.01476 6.78711C7.01509 6.78645 7.01689 6.78381 7.01769 6.78223C7.04756 6.72256 7.18324 6.45308 7.49523 6.29199ZM20.0001 13C20.5522 13.0002 21.0001 13.4478 21.0001 14V16H23.0001C23.5522 16.0002 24.0001 16.4478 24.0001 17C24.0001 17.5522 23.5522 17.9998 23.0001 18H21.0001V20C21.0001 20.5522 20.5522 20.9998 20.0001 21C19.4478 21 19.0001 20.5523 19.0001 20V18H17.0001C16.4478 18 16.0001 17.5523 16.0001 17C16.0001 16.4477 16.4478 16 17.0001 16H19.0001V14C19.0001 13.4477 19.4478 13 20.0001 13ZM6.95421 12.3076C6.95285 12.311 6.93915 12.3455 6.92394 12.3789C6.90479 12.4209 6.87024 12.4894 6.81554 12.5654C6.74612 12.6619 6.66201 12.747 6.56554 12.8164C6.48933 12.8712 6.42001 12.9047 6.37804 12.9238C6.34726 12.9378 6.31598 12.9502 6.3087 12.9531L6.30773 12.9541L3.69249 14L6.30773 15.0459C6.31176 15.0475 6.34509 15.0612 6.37804 15.0762C6.42001 15.0953 6.48933 15.1288 6.56554 15.1836C6.66201 15.253 6.74612 15.3381 6.81554 15.4346C6.87025 15.5107 6.90479 15.5791 6.92394 15.6211C6.93806 15.6521 6.95041 15.6843 6.95323 15.6914L6.95421 15.6924L8.00011 18.3076L9.04601 15.6924C9.04737 15.689 9.06009 15.6545 9.0753 15.6211C9.09444 15.5791 9.12893 15.5107 9.1837 15.4346C9.25318 15.338 9.33808 15.2531 9.43468 15.1836C9.51075 15.1289 9.57926 15.0953 9.6212 15.0762C9.6546 15.061 9.68908 15.0473 9.69249 15.0459L12.3067 14L9.69249 12.9541C9.68908 12.9527 9.6546 12.939 9.6212 12.9238C9.57926 12.9047 9.51075 12.8711 9.43468 12.8164C9.33808 12.7469 9.25318 12.662 9.1837 12.5654C9.12894 12.4893 9.09444 12.4209 9.0753 12.3789C9.06118 12.3479 9.04882 12.3157 9.04601 12.3086V12.3076L8.00011 9.69238L6.95421 12.3076ZM17.0001 2C17.5522 2.00017 18.0001 2.44782 18.0001 3V5H20.0001C20.5522 5.00017 21.0001 5.44782 21.0001 6C21.0001 6.55218 20.5522 6.99983 20.0001 7H18.0001V9C18.0001 9.55218 17.5522 9.99983 17.0001 10C16.4478 10 16.0001 9.55228 16.0001 9V7H14.0001C13.4478 7 13.0001 6.55228 13.0001 6C13.0001 5.44772 13.4478 5 14.0001 5H16.0001V3C16.0001 2.44772 16.4478 2 17.0001 2Z" fill="black"/>
</svg>

<svg width="24" height="24" fill="none" xmlns="http://www.w3.org/2000/svg"><path d="M7.495 6.292a1.1 1.1 0 0 1 1.009 0c.312.16.448.43.478.49l.002.005c.037.073.07.157.088.201L9.077 7l1.692 4.23L15 12.923l.012.005a2.596 2.596 0 0 1 .205.09c.059.03.33.165.491.478a1.1 1.1 0 0 1 0 1.008 1.116 1.116 0 0 1-.496.48c-.073.037-.156.07-.2.088l-.012.005-4.231 1.693L9.077 21l-.005.012a2.557 2.557 0 0 1-.088.2l-.002.006c-.03.06-.166.33-.478.49a1.101 1.101 0 0 1-1.009 0 1.114 1.114 0 0 1-.477-.49l-.003-.005c-.037-.073-.07-.157-.087-.201L6.923 21l-1.692-4.23L1 15.077l-.013-.005a2.581 2.581 0 0 1-.2-.088c-.001 0-.004 0-.006-.002a1.116 1.116 0 0 1-.49-.478 1.1 1.1 0 0 1 0-1.008c.16-.313.431-.449.49-.478l.005-.002c.073-.037.157-.07.201-.088L1 12.923l4.23-1.693L6.924 7l.005-.012c.017-.044.05-.128.087-.2l.003-.006c.03-.06.165-.329.477-.49zM20 13a1 1 0 0 1 1 1v2h2a1 1 0 0 1 0 2h-2v2a1 1 0 0 1-2 0v-2h-2a1 1 0 1 1 0-2h2v-2a1 1 0 0 1 1-1zm-13.046-.692-.03.07a1.108 1.108 0 0 1-.546.546c-.03.014-.062.026-.07.03L3.692 14l2.616 1.046.07.03a1.087 1.087 0 0 1 .546.545l.03.07v.001L8 18.308l1.046-2.616a1.107 1.107 0 0 1 .575-.616l.071-.03L12.307 14l-2.615-1.046-.07-.03a1.09 1.09 0 0 1-.547-.545c-.014-.031-.026-.063-.029-.07v-.001L8 9.692l-1.046 2.616zM17 2a1 1 0 0 1 1 1v2h2a1 1 0 0 1 0 2h-2v2a1 1 0 0 1-2 0V7h-2a1 1 0 1 1 0-2h2V3a1 1 0 0 1 1-1z" fill="#000"/></svg>
